images/5459752.svg

<?xml version="1.0" encoding="UTF-8"?>
<svg xmlns="http://www.w3.org/2000/svg" xmlns:xlink="http://www.w3.org/1999/xlink" width="300pt" height="300pt" viewBox="0 0 300 300" version="1.1">
<defs>
<g>
<symbol overflow="visible" id="glyph0-0">
<path style="stroke:none;" d="M 0.453125 1.59375 L 0.453125 -6.34375 L 4.953125 -6.34375 L 4.953125 1.59375 Z M 0.953125 1.09375 L 4.453125 1.09375 L 4.453125 -5.84375 L 0.953125 -5.84375 Z M 0.953125 1.09375 "/>
</symbol>
<symbol overflow="visible" id="glyph0-1">
<path style="stroke:none;" d="M 0.890625 -6.5625 L 2.078125 -6.5625 L 4.984375 -1.078125 L 4.984375 -6.5625 L 5.84375 -6.5625 L 5.84375 0 L 4.65625 0 L 1.75 -5.484375 L 1.75 0 L 0.890625 0 Z M 0.890625 -6.5625 "/>
</symbol>
<symbol overflow="visible" id="glyph0-2">
<path style="stroke:none;" d="M 3.546875 -5.953125 C 2.898438 -5.953125 2.382812 -5.710938 2 -5.234375 C 1.625 -4.753906 1.4375 -4.101562 1.4375 -3.28125 C 1.4375 -2.445312 1.625 -1.789062 2 -1.3125 C 2.382812 -0.832031 2.898438 -0.59375 3.546875 -0.59375 C 4.191406 -0.59375 4.703125 -0.832031 5.078125 -1.3125 C 5.453125 -1.789062 5.640625 -2.445312 5.640625 -3.28125 C 5.640625 -4.101562 5.453125 -4.753906 5.078125 -5.234375 C 4.703125 -5.710938 4.191406 -5.953125 3.546875 -5.953125 Z M 3.546875 -6.6875 C 4.460938 -6.6875 5.195312 -6.375 5.75 -5.75 C 6.300781 -5.132812 6.578125 -4.3125 6.578125 -3.28125 C 6.578125 -2.238281 6.300781 -1.410156 5.75 -0.796875 C 5.195312 -0.179688 4.460938 0.125 3.546875 0.125 C 2.617188 0.125 1.878906 -0.179688 1.328125 -0.796875 C 0.773438 -1.410156 0.5 -2.238281 0.5 -3.28125 C 0.5 -4.3125 0.773438 -5.132812 1.328125 -5.75 C 1.878906 -6.375 2.617188 -6.6875 3.546875 -6.6875 Z M 3.546875 -6.6875 "/>
</symbol>
<symbol overflow="visible" id="glyph0-3">
<path style="stroke:none;" d="M 0.890625 -6.5625 L 1.765625 -6.5625 L 1.765625 -3.875 L 5 -3.875 L 5 -6.5625 L 5.890625 -6.5625 L 5.890625 0 L 5 0 L 5 -3.125 L 1.765625 -3.125 L 1.765625 0 L 0.890625 0 Z M 0.890625 -6.5625 "/>
</symbol>
</g>
</defs>
<g id="surface47661">
<rect x="0" y="0" width="300" height="300" style="fill:rgb(100%,100%,100%);fill-opacity:1;stroke:none;"/>
<path style="fill:none;stroke-width:1;stroke-linecap:butt;stroke-linejoin:miter;stroke:rgb(0%,0%,0%);stroke-opacity:1;stroke-miterlimit:10;" d="M 98.703125 99.644531 L 98.703125 99.644531 M 96.761719 97.359375 L 96.09375 98.160156 M 94.820312 95.070312 L 93.488281 96.675781 M 92.878906 92.78125 L 90.882812 95.191406 M 90.9375 90.496094 L 88.277344 93.703125 M 89 88.207031 L 85.667969 92.21875 M 87.058594 85.917969 L 83.0625 90.734375 M 85.117188 83.632812 L 80.457031 89.25 M 83.175781 81.34375 L 77.847656 87.761719 M 82.914062 81.035156 L 77.496094 87.5625 "/>
<path style="fill:none;stroke-width:1.2;stroke-linecap:butt;stroke-linejoin:miter;stroke:rgb(0%,0%,0%);stroke-opacity:1;stroke-miterlimit:10;" d="M 98.703125 99.644531 L 121.988281 93.703125 "/>
<path style="fill:none;stroke-width:1.2;stroke-linecap:butt;stroke-linejoin:miter;stroke:rgb(0%,0%,100%);stroke-opacity:1;stroke-miterlimit:10;" d="M 97.15625 123.628906 L 97.929688 111.636719 "/>
<path style="fill:none;stroke-width:1.2;stroke-linecap:butt;stroke-linejoin:miter;stroke:rgb(0%,0%,0%);stroke-opacity:1;stroke-miterlimit:10;" d="M 97.929688 111.636719 L 98.703125 99.644531 "/>
<path style="fill:none;stroke-width:1.2;stroke-linecap:butt;stroke-linejoin:miter;stroke:rgb(0%,0%,0%);stroke-opacity:1;stroke-miterlimit:10;" d="M 121.988281 93.703125 L 134.839844 114.015625 "/>
<path style="fill:none;stroke-width:1.2;stroke-linecap:butt;stroke-linejoin:miter;stroke:rgb(0%,0%,0%);stroke-opacity:1;stroke-miterlimit:10;" d="M 118.496094 98.757812 L 128.773438 115.007812 "/>
<path style="fill:none;stroke-width:1.2;stroke-linecap:butt;stroke-linejoin:miter;stroke:rgb(0%,0%,0%);stroke-opacity:1;stroke-miterlimit:10;" d="M 134.839844 114.015625 L 119.492188 132.511719 "/>
<path style="fill:none;stroke-width:1.2;stroke-linecap:butt;stroke-linejoin:miter;stroke:rgb(0%,0%,0%);stroke-opacity:1;stroke-miterlimit:10;" d="M 119.492188 132.511719 L 108.324219 128.070312 "/>
<path style="fill:none;stroke-width:1.2;stroke-linecap:butt;stroke-linejoin:miter;stroke:rgb(0%,0%,100%);stroke-opacity:1;stroke-miterlimit:10;" d="M 108.324219 128.070312 L 97.15625 123.628906 "/>
<path style=" stroke:none;fill-rule:nonzero;fill:rgb(0%,0%,0%);fill-opacity:1;" d="M 119.492188 132.511719 L 104.570312 151.824219 L 112.082031 155.765625 Z M 119.492188 132.511719 "/>
<path style="fill:none;stroke-width:1.2;stroke-linecap:butt;stroke-linejoin:miter;stroke:rgb(0%,0%,0%);stroke-opacity:1;stroke-miterlimit:10;" d="M 119.492188 132.511719 L 139.492188 145.839844 "/>
<path style="fill:none;stroke-width:1.2;stroke-linecap:butt;stroke-linejoin:miter;stroke:rgb(0%,0%,100%);stroke-opacity:1;stroke-miterlimit:10;" d="M 97.15625 123.628906 L 87 130.054688 "/>
<path style="fill:none;stroke-width:1.2;stroke-linecap:butt;stroke-linejoin:miter;stroke:rgb(0%,0%,0%);stroke-opacity:1;stroke-miterlimit:10;" d="M 87 130.054688 L 76.84375 136.480469 "/>
<path style=" stroke:none;fill-rule:nonzero;fill:rgb(100%,100%,100%);fill-opacity:1;" d="M 94.15625 118.128906 L 101.15625 118.128906 L 101.15625 129.128906 L 94.15625 129.128906 Z M 94.15625 118.128906 "/>
<g style="fill:rgb(0%,0%,100%);fill-opacity:1;">
  <use xlink:href="#glyph0-1" x="94.15625" y="126.791992"/>
</g>
<path style="fill:none;stroke-width:1.2;stroke-linecap:butt;stroke-linejoin:miter;stroke:rgb(0%,0%,0%);stroke-opacity:1;stroke-miterlimit:10;" d="M 74.019531 136.59375 L 74.503906 148.601562 "/>
<path style="fill:none;stroke-width:1.2;stroke-linecap:butt;stroke-linejoin:miter;stroke:rgb(100%,0%,0%);stroke-opacity:1;stroke-miterlimit:10;" d="M 74.503906 148.601562 L 74.992188 160.609375 "/>
<path style="fill:none;stroke-width:1.2;stroke-linecap:butt;stroke-linejoin:miter;stroke:rgb(0%,0%,0%);stroke-opacity:1;stroke-miterlimit:10;" d="M 79.671875 136.363281 L 80.15625 148.371094 "/>
<path style="fill:none;stroke-width:1.2;stroke-linecap:butt;stroke-linejoin:miter;stroke:rgb(100%,0%,0%);stroke-opacity:1;stroke-miterlimit:10;" d="M 80.15625 148.371094 L 80.640625 160.378906 "/>
<path style="fill:none;stroke-width:1.2;stroke-linecap:butt;stroke-linejoin:miter;stroke:rgb(0%,0%,0%);stroke-opacity:1;stroke-miterlimit:10;" d="M 76.84375 136.480469 L 66.203125 130.894531 "/>
<path style="fill:none;stroke-width:1.2;stroke-linecap:butt;stroke-linejoin:miter;stroke:rgb(100%,0%,0%);stroke-opacity:1;stroke-miterlimit:10;" d="M 66.203125 130.894531 L 55.5625 125.3125 "/>
<path style=" stroke:none;fill-rule:nonzero;fill:rgb(100%,100%,100%);fill-opacity:1;" d="M 73.816406 154.996094 L 81.816406 154.996094 L 81.816406 165.996094 L 73.816406 165.996094 Z M 73.816406 154.996094 "/>
<g style="fill:rgb(100%,0%,0%);fill-opacity:1;">
  <use xlink:href="#glyph0-2" x="73.816406" y="163.65918"/>
</g>
<path style="fill:none;stroke-width:1.2;stroke-linecap:butt;stroke-linejoin:miter;stroke:rgb(100%,0%,0%);stroke-opacity:1;stroke-miterlimit:10;" d="M 55.5625 125.3125 L 45.40625 131.738281 "/>
<path style="fill:none;stroke-width:1.2;stroke-linecap:butt;stroke-linejoin:miter;stroke:rgb(0%,0%,0%);stroke-opacity:1;stroke-miterlimit:10;" d="M 45.40625 131.738281 L 35.25 138.160156 "/>
<path style=" stroke:none;fill-rule:nonzero;fill:rgb(100%,100%,100%);fill-opacity:1;" d="M 51.5625 119.8125 L 59.5625 119.8125 L 59.5625 130.8125 L 51.5625 130.8125 Z M 51.5625 119.8125 "/>
<g style="fill:rgb(100%,0%,0%);fill-opacity:1;">
  <use xlink:href="#glyph0-2" x="51.5625" y="128.475586"/>
</g>
<path style="fill:none;stroke-width:1.2;stroke-linecap:butt;stroke-linejoin:miter;stroke:rgb(0%,0%,0%);stroke-opacity:1;stroke-miterlimit:10;" d="M 108.324219 153.792969 L 121.171875 174.105469 "/>
<path style="fill:none;stroke-width:1.2;stroke-linecap:butt;stroke-linejoin:miter;stroke:rgb(0%,0%,0%);stroke-opacity:1;stroke-miterlimit:10;" d="M 121.171875 174.105469 L 145.1875 173.136719 "/>
<path style="fill:none;stroke-width:1.2;stroke-linecap:butt;stroke-linejoin:miter;stroke:rgb(0%,0%,0%);stroke-opacity:1;stroke-miterlimit:10;" d="M 123.804688 179.660156 L 143.015625 178.882812 "/>
<path style="fill:none;stroke-width:1.2;stroke-linecap:butt;stroke-linejoin:miter;stroke:rgb(0%,0%,0%);stroke-opacity:1;stroke-miterlimit:10;" d="M 110.007812 195.390625 L 121.171875 174.105469 "/>
<path style="fill:none;stroke-width:1.2;stroke-linecap:butt;stroke-linejoin:miter;stroke:rgb(0%,0%,0%);stroke-opacity:1;stroke-miterlimit:10;" d="M 145.1875 173.136719 L 158.039062 193.445312 "/>
<path style="fill:none;stroke-width:1.2;stroke-linecap:butt;stroke-linejoin:miter;stroke:rgb(0%,0%,0%);stroke-opacity:1;stroke-miterlimit:10;" d="M 158.039062 193.445312 L 146.871094 214.730469 "/>
<path style="fill:none;stroke-width:1.2;stroke-linecap:butt;stroke-linejoin:miter;stroke:rgb(0%,0%,0%);stroke-opacity:1;stroke-miterlimit:10;" d="M 151.914062 192.949219 L 142.980469 209.976562 "/>
<path style="fill:none;stroke-width:1.2;stroke-linecap:butt;stroke-linejoin:miter;stroke:rgb(0%,0%,0%);stroke-opacity:1;stroke-miterlimit:10;" d="M 146.871094 214.730469 L 122.855469 215.703125 "/>
<path style="fill:none;stroke-width:1.2;stroke-linecap:butt;stroke-linejoin:miter;stroke:rgb(0%,0%,0%);stroke-opacity:1;stroke-miterlimit:10;" d="M 122.855469 215.703125 L 110.007812 195.390625 "/>
<path style="fill:none;stroke-width:1.2;stroke-linecap:butt;stroke-linejoin:miter;stroke:rgb(0%,0%,0%);stroke-opacity:1;stroke-miterlimit:10;" d="M 126.351562 210.648438 L 116.070312 194.398438 "/>
<path style="fill:none;stroke-width:1.2;stroke-linecap:butt;stroke-linejoin:miter;stroke:rgb(0%,0%,0%);stroke-opacity:1;stroke-miterlimit:10;" d="M 136.707031 146.347656 L 137.980469 153.328125 "/>
<path style="fill:none;stroke-width:1.2;stroke-linecap:butt;stroke-linejoin:miter;stroke:rgb(100%,0%,0%);stroke-opacity:1;stroke-miterlimit:10;" d="M 137.980469 153.328125 L 139.25 160.308594 "/>
<path style="fill:none;stroke-width:1.2;stroke-linecap:butt;stroke-linejoin:miter;stroke:rgb(0%,0%,0%);stroke-opacity:1;stroke-miterlimit:10;" d="M 142.273438 145.335938 L 143.542969 152.316406 "/>
<path style="fill:none;stroke-width:1.2;stroke-linecap:butt;stroke-linejoin:miter;stroke:rgb(100%,0%,0%);stroke-opacity:1;stroke-miterlimit:10;" d="M 143.542969 152.316406 L 144.816406 159.296875 "/>
<path style="fill:none;stroke-width:1.2;stroke-linecap:butt;stroke-linejoin:miter;stroke:rgb(0%,0%,0%);stroke-opacity:1;stroke-miterlimit:10;" d="M 139.492188 145.839844 L 150.261719 140.511719 "/>
<path style="fill:none;stroke-width:1.2;stroke-linecap:butt;stroke-linejoin:miter;stroke:rgb(0%,0%,100%);stroke-opacity:1;stroke-miterlimit:10;" d="M 150.261719 140.511719 L 161.035156 135.1875 "/>
<path style=" stroke:none;fill-rule:nonzero;fill:rgb(100%,100%,100%);fill-opacity:1;" d="M 138.03125 154.304688 L 146.03125 154.304688 L 146.03125 165.304688 L 138.03125 165.304688 Z M 138.03125 154.304688 "/>
<g style="fill:rgb(100%,0%,0%);fill-opacity:1;">
  <use xlink:href="#glyph0-2" x="138.03125" y="162.967773"/>
</g>
<path style="fill:none;stroke-width:1.2;stroke-linecap:butt;stroke-linejoin:miter;stroke:rgb(0%,0%,100%);stroke-opacity:1;stroke-miterlimit:10;" d="M 161.035156 135.1875 L 171.035156 141.851562 "/>
<path style="fill:none;stroke-width:1.2;stroke-linecap:butt;stroke-linejoin:miter;stroke:rgb(0%,0%,0%);stroke-opacity:1;stroke-miterlimit:10;" d="M 171.035156 141.851562 L 181.035156 148.515625 "/>
<path style=" stroke:none;fill-rule:nonzero;fill:rgb(100%,100%,100%);fill-opacity:1;" d="M 154.035156 129.6875 L 168.035156 129.6875 L 168.035156 140.6875 L 154.035156 140.6875 Z M 154.035156 129.6875 "/>
<g style="fill:rgb(0%,0%,100%);fill-opacity:1;">
  <use xlink:href="#glyph0-1" x="154.035156" y="138.350586"/>
  <use xlink:href="#glyph0-3" x="161.012695" y="138.350586"/>
</g>
<path style="fill:none;stroke-width:1.2;stroke-linecap:butt;stroke-linejoin:miter;stroke:rgb(0%,0%,0%);stroke-opacity:1;stroke-miterlimit:10;" d="M 181.035156 148.515625 L 202.578125 137.859375 "/>
<path style="fill:none;stroke-width:1.2;stroke-linecap:butt;stroke-linejoin:miter;stroke:rgb(0%,0%,0%);stroke-opacity:1;stroke-miterlimit:10;" d="M 202.578125 137.859375 L 206.621094 114.167969 "/>
<path style="fill:none;stroke-width:1.2;stroke-linecap:butt;stroke-linejoin:miter;stroke:rgb(0%,0%,0%);stroke-opacity:1;stroke-miterlimit:10;" d="M 208.558594 136.441406 L 211.792969 117.488281 "/>
<path style="fill:none;stroke-width:1.2;stroke-linecap:butt;stroke-linejoin:miter;stroke:rgb(100%,0%,0%);stroke-opacity:1;stroke-miterlimit:10;" d="M 223.859375 149.027344 L 213.21875 143.445312 "/>
<path style="fill:none;stroke-width:1.2;stroke-linecap:butt;stroke-linejoin:miter;stroke:rgb(0%,0%,0%);stroke-opacity:1;stroke-miterlimit:10;" d="M 213.21875 143.445312 L 202.578125 137.859375 "/>
<path style="fill:none;stroke-width:1.2;stroke-linecap:butt;stroke-linejoin:miter;stroke:rgb(0%,0%,0%);stroke-opacity:1;stroke-miterlimit:10;" d="M 206.621094 114.167969 L 230.402344 110.691406 "/>
<path style="fill:none;stroke-width:1.2;stroke-linecap:butt;stroke-linejoin:miter;stroke:rgb(0%,0%,0%);stroke-opacity:1;stroke-miterlimit:10;" d="M 230.402344 110.691406 L 241.058594 132.234375 "/>
<path style="fill:none;stroke-width:1.2;stroke-linecap:butt;stroke-linejoin:miter;stroke:rgb(0%,0%,0%);stroke-opacity:1;stroke-miterlimit:10;" d="M 226.398438 115.355469 L 234.921875 132.589844 "/>
<path style="fill:none;stroke-width:1.2;stroke-linecap:butt;stroke-linejoin:miter;stroke:rgb(0%,0%,0%);stroke-opacity:1;stroke-miterlimit:10;" d="M 241.058594 132.234375 L 232.460938 140.632812 "/>
<path style="fill:none;stroke-width:1.2;stroke-linecap:butt;stroke-linejoin:miter;stroke:rgb(100%,0%,0%);stroke-opacity:1;stroke-miterlimit:10;" d="M 232.460938 140.632812 L 223.859375 149.027344 "/>
<path style="fill:none;stroke-width:1.2;stroke-linecap:butt;stroke-linejoin:miter;stroke:rgb(0%,0%,0%);stroke-opacity:1;stroke-miterlimit:10;" d="M 241.058594 132.234375 L 264.75 136.277344 "/>
<path style=" stroke:none;fill-rule:nonzero;fill:rgb(100%,100%,100%);fill-opacity:1;" d="M 219.859375 143.527344 L 227.859375 143.527344 L 227.859375 154.527344 L 219.859375 154.527344 Z M 219.859375 143.527344 "/>
<g style="fill:rgb(100%,0%,0%);fill-opacity:1;">
  <use xlink:href="#glyph0-2" x="219.859375" y="152.19043"/>
</g>
</g>
</svg>

<svg xmlns="http://www.w3.org/2000/svg" xmlns:xlink="http://www.w3.org/1999/xlink" width="300pt" height="300pt" viewBox="0 0 300 300"><defs><symbol overflow="visible"><path d="M.453 1.594v-7.938h4.5v7.938zm.5-.5h3.5v-6.938h-3.5zm0 0"/></symbol><symbol overflow="visible" id="a"><path d="M.89-6.563H2.08l2.906 5.485v-5.484h.86V0H4.656L1.75-5.484V0H.89zm0 0"/></symbol><symbol overflow="visible" id="b"><path d="M3.547-5.953c-.65 0-1.164.242-1.547.72-.375.48-.563 1.13-.563 1.952 0 .835.188 1.49.563 1.967.383.48.898.72 1.547.72.644 0 1.156-.24 1.53-.72.376-.476.564-1.132.564-1.968 0-.822-.187-1.474-.562-1.954-.375-.477-.887-.72-1.53-.72zm0-.734c.914 0 1.648.312 2.203.937.55.617.828 1.438.828 2.47 0 1.042-.277 1.87-.828 2.483-.555.617-1.29.922-2.203.922-.93 0-1.668-.305-2.22-.922C.774-1.41.5-2.237.5-3.28c0-1.033.273-1.853.828-2.47.55-.625 1.29-.938 2.22-.938zm0 0"/></symbol><symbol overflow="visible" id="c"><path d="M.89-6.563h.876v2.688H5v-2.688h.89V0H5v-3.125H1.766V0H.89zm0 0"/></symbol></defs><g><path fill="#fff" d="M0 0h300v300H0z"/><path d="M98.703 99.645m-1.94-2.286l-.67.8m-1.273-3.09l-1.332 1.606m-.61-3.895l-1.995 2.41m.055-4.694l-2.66 3.207M89 88.207l-3.332 4.012m1.39-6.302l-3.996 4.816m2.055-7.1l-4.66 5.616m2.72-7.906l-5.33 6.418m5.067-6.727l-5.418 6.528" stroke="#000" stroke-miterlimit="10" fill="none"/><path d="M98.703 99.645l23.285-5.942" stroke-width="1.2" stroke="#000" stroke-miterlimit="10" fill="none"/><path d="M97.156 123.63l.774-11.993" stroke-width="1.2" stroke="#00f" stroke-miterlimit="10" fill="none"/><path d="M97.93 111.637l.773-11.992M121.988 93.703l12.852 20.313M118.496 98.758l10.277 16.25M134.84 114.016l-15.348 18.496M119.492 132.512l-11.168-4.442" stroke-width="1.2" stroke="#000" stroke-miterlimit="10" fill="none"/><path d="M108.324 128.07l-11.168-4.44" stroke-width="1.2" stroke="#00f" stroke-miterlimit="10" fill="none"/><path d="M119.492 132.512l-14.922 19.312 7.512 3.942zm0 0"/><path d="M119.492 132.512l20 13.328" stroke-width="1.2" stroke="#000" stroke-miterlimit="10" fill="none"/><path d="M97.156 123.63L87 130.054" stroke-width="1.2" stroke="#00f" stroke-miterlimit="10" fill="none"/><path d="M87 130.055l-10.156 6.425" stroke-width="1.2" stroke="#000" stroke-miterlimit="10" fill="none"/><path d="M94.156 118.13h7v11h-7zm0 0" fill="#fff"/><use xlink:href="#a" x="94.156" y="126.792" fill="#00f"/><path d="M74.02 136.594l.484 12.008" stroke-width="1.2" stroke="#000" stroke-miterlimit="10" fill="none"/><path d="M74.504 148.602l.488 12.007" stroke-width="1.2" stroke="#f00" stroke-miterlimit="10" fill="none"/><path d="M79.672 136.363l.484 12.008" stroke-width="1.2" stroke="#000" stroke-miterlimit="10" fill="none"/><path d="M80.156 148.37l.485 12.01" stroke-width="1.2" stroke="#f00" stroke-miterlimit="10" fill="none"/><path d="M76.844 136.48l-10.64-5.585" stroke-width="1.2" stroke="#000" stroke-miterlimit="10" fill="none"/><path d="M66.203 130.895l-10.64-5.583" stroke-width="1.2" stroke="#f00" stroke-miterlimit="10" fill="none"/><path d="M73.816 154.996h8v11h-8zm0 0" fill="#fff"/><use xlink:href="#b" x="73.816" y="163.659" fill="#f00"/><path d="M55.563 125.313l-10.157 6.425" stroke-width="1.2" stroke="#f00" stroke-miterlimit="10" fill="none"/><path d="M45.406 131.738L35.25 138.16" stroke-width="1.2" stroke="#000" stroke-miterlimit="10" fill="none"/><path d="M51.563 119.813h8v11h-8zm0 0" fill="#fff"/><use xlink:href="#b" x="51.563" y="128.476" fill="#f00"/><path d="M108.324 153.793l12.848 20.312M121.172 174.105l24.016-.968M123.805 179.66l19.21-.777M110.008 195.39l11.164-21.285M145.188 173.137l12.85 20.308M158.04 193.445l-11.17 21.285M151.914 192.95l-8.934 17.027M146.87 214.73l-24.015.973M122.855 215.703l-12.847-20.312M126.352 210.648l-10.282-16.25M136.707 146.348l1.273 6.98" stroke-width="1.2" stroke="#000" stroke-miterlimit="10" fill="none"/><path d="M137.98 153.328l1.27 6.98" stroke-width="1.2" stroke="#f00" stroke-miterlimit="10" fill="none"/><path d="M142.273 145.336l1.27 6.98" stroke-width="1.2" stroke="#000" stroke-miterlimit="10" fill="none"/><path d="M143.543 152.316l1.273 6.98" stroke-width="1.2" stroke="#f00" stroke-miterlimit="10" fill="none"/><path d="M139.492 145.84l10.77-5.328" stroke-width="1.2" stroke="#000" stroke-miterlimit="10" fill="none"/><path d="M150.262 140.512l10.773-5.325" stroke-width="1.2" stroke="#00f" stroke-miterlimit="10" fill="none"/><path d="M138.03 154.305h8v11h-8zm0 0" fill="#fff"/><use xlink:href="#b" x="138.031" y="162.968" fill="#f00"/><path d="M161.035 135.188l10 6.664" stroke-width="1.2" stroke="#00f" stroke-miterlimit="10" fill="none"/><path d="M171.035 141.852l10 6.664" stroke-width="1.2" stroke="#000" stroke-miterlimit="10" fill="none"/><path d="M154.035 129.688h14v11h-14zm0 0" fill="#fff"/><g fill="#00f"><use xlink:href="#a" x="154.035" y="138.351"/><use xlink:href="#c" x="161.013" y="138.351"/></g><path d="M181.035 148.516l21.543-10.657M202.578 137.86l4.043-23.692M208.56 136.44l3.233-18.952" stroke-width="1.2" stroke="#000" stroke-miterlimit="10" fill="none"/><path d="M223.86 149.027l-10.64-5.582" stroke-width="1.2" stroke="#f00" stroke-miterlimit="10" fill="none"/><path d="M213.22 143.445l-10.642-5.586M206.62 114.168l23.782-3.477M230.402 110.69l10.657 21.544M226.398 115.355l8.524 17.235M241.06 132.234l-8.6 8.4" stroke-width="1.2" stroke="#000" stroke-miterlimit="10" fill="none"/><path d="M232.46 140.633l-8.6 8.394" stroke-width="1.2" stroke="#f00" stroke-miterlimit="10" fill="none"/><path d="M241.06 132.234l23.69 4.043" stroke-width="1.2" stroke="#000" stroke-miterlimit="10" fill="none"/><path d="M219.86 143.527h8v11h-8zm0 0" fill="#fff"/><use xlink:href="#b" x="219.859" y="152.19" fill="#f00"/></g></svg>
